packages/react-icons/icons/train-filled.svg

<svg width="24" height="25" viewBox="0 0 24 25" xmlns="http://www.w3.org/2000/svg"><path fill-rule="evenodd" clip-rule="evenodd" d="M11.4805 3.33691C10.4312 3.33691 9.58054 4.18758 9.58054 5.23692V5.75373C8.57915 5.80729 7.78366 6.63623 7.78366 7.65098V9.87651L7.23026 10.1621C6.93102 10.3166 6.74302 10.6251 6.74302 10.9619V16.302C6.74302 16.6652 6.95817 16.9781 7.26797 17.1204L4.26312 20.1252C3.91164 20.4767 3.91164 21.0465 4.26312 21.398C4.61459 21.7495 5.18444 21.7495 5.53591 21.398L7.1878 19.7461C7.20827 19.7478 7.22896 19.7486 7.24986 19.7486H16.7501C16.771 19.7486 16.7918 19.7478 16.8123 19.7461L18.4642 21.398C18.8156 21.7495 19.3855 21.7495 19.737 21.398C20.0884 21.0465 20.0884 20.4767 19.737 20.1252L16.6933 17.0816C16.9623 16.9259 17.1432 16.6351 17.1432 16.302V10.9619C17.1432 10.6251 16.9553 10.3166 16.656 10.1621L16.2182 9.93619V7.65098C16.2182 6.63654 15.4232 5.80778 14.4223 5.75378V5.23691C14.4223 4.18757 13.5716 3.33691 12.5223 3.33691H11.4805ZM14.2681 17.202H9.73193L8.68527 18.2486H15.3148L14.2681 17.202ZM11.2271 8.09933L9.58366 8.94753V7.65098C9.58366 7.59575 9.62843 7.55098 9.68366 7.55098H11.2271V8.09933ZM14.4182 9.0072L12.7222 8.13188V7.55098H14.3182C14.3735 7.55098 14.4182 7.59575 14.4182 7.65098V9.0072ZM12.6223 5.75098V5.23691C12.6223 5.18169 12.5775 5.13691 12.5223 5.13691H11.4805C11.4253 5.13691 11.3805 5.18169 11.3805 5.23692V5.75098H12.6223ZM14.9963 13.9213C14.9963 14.4687 14.5525 14.9124 14.0051 14.9124C13.4578 14.9124 13.014 14.4687 13.014 13.9213C13.014 13.3739 13.4578 12.9302 14.0051 12.9302C14.5525 12.9302 14.9963 13.3739 14.9963 13.9213ZM9.99587 14.9124C10.5432 14.9124 10.987 14.4687 10.987 13.9213C10.987 13.3739 10.5432 12.9302 9.99587 12.9302C9.44848 12.9302 9.00474 13.3739 9.00474 13.9213C9.00474 14.4687 9.44848 14.9124 9.99587 14.9124Z"/></svg>

<svg xmlns="http://www.w3.org/2000/svg" width="24" height="25"><path fill-rule="evenodd" d="M11.48 3.337a1.9 1.9 0 0 0-1.9 1.9v.517A1.9 1.9 0 0 0 7.785 7.65v2.226l-.554.285a.9.9 0 0 0-.487.8v5.34a.9.9 0 0 0 .525.818l-3.005 3.005a.9.9 0 1 0 1.273 1.273l1.652-1.652a.75.75 0 0 0 .062.003h9.5c.021 0 .042-.001.062-.003l1.652 1.652a.9.9 0 1 0 1.273-1.273l-3.044-3.043a.9.9 0 0 0 .45-.78v-5.34a.9.9 0 0 0-.487-.8l-.438-.226V7.651a1.9 1.9 0 0 0-1.796-1.897v-.517a1.9 1.9 0 0 0-1.9-1.9H11.48Zm2.788 13.865H9.732l-1.047 1.047h6.63l-1.047-1.047Zm-3.04-9.103-1.644.849V7.65a.1.1 0 0 1 .1-.1h1.543v.548Zm3.19.908-1.696-.875V7.55h1.596a.1.1 0 0 1 .1.1v1.356Zm-1.796-3.256v-.514a.1.1 0 0 0-.1-.1H11.48a.1.1 0 0 0-.1.1v.514h1.242Zm2.374 8.17a.991.991 0 1 1-1.982 0 .991.991 0 0 1 1.982 0Zm-5 .991a.991.991 0 1 0 0-1.982.991.991 0 0 0 0 1.982Z" clip-rule="evenodd"/></svg>
